X:1
T:Basel, CM
T:Basel, CM
T:Samuel Sebastian Wesley, 1864
T:Public Domain Courtesy of the Cyber Hymnal™
C:Samuel Sebastian Wesley, 1864
Z:Public Domain
Z:Courtesy of the Cyber Hymnal™
%%score ( 1 2 ) ( 3 4 )
L:1/8
Q:1/4=107
M:4/4
K:Eb
V:1 treble 
V:2 treble 
V:3 bass 
V:4 bass 
V:1
 [EB]2 | [FB]2 [EB]2 [Ec]2 [Ad]2 | [Ge]2 [Fe]2 [Fd]2 [Dc]2 | [EB]2 [EG]2 [EA]2 [DF]2 | E6 [DF]2 | %5
 [DF]2 [=EG]2 [FA]2 [FB]2 | [FG]2 [EG]2 [DF]2 [EB]2 | [Ec]2 [EF]2 [EG]2 [DF]2 | E6 |] %9
V:2
 x2 | x8 | x8 | x8 | E6 x2 | x8 | x8 | x8 | E6 |] %9
V:3
 [E,G,]2 | [D,A,]2 [E,G,]2 A,2 [F,A,]2 | [G,B,]2 [=A,C]2 B,2 [_A,B,]2 | %3
 [G,B,]2 [C,C]2 [F,C]2 (B,A,) | [E,G,]6 B,2 | [A,B,]2 [G,B,]2 [F,C]2 [D,B,]2 | %6
 [E,B,]2 [G,B,]2 B,2 [G,,B,]2 | [A,,A,]2 [=A,,C]2 [B,,B,]2 (B,=A,) | [E,G,]6 |] %9
V:4
 x2 | x4 A,2 x2 | x4 B,2 x2 | x6 B,,2 | x6 B,2 | x8 | x4 B,2 x2 | x6 B,,2 | x6 |] %9

